javascript.info/2-ui/99-ui-misc/03-event-loop/eventLoop.svg

<?xml version="1.0" encoding="UTF-8"?>
<svg width="479px" height="279px" viewBox="0 0 479 279" version="1.1" xmlns="http://www.w3.org/2000/svg" xmlns:xlink="http://www.w3.org/1999/xlink">
    <!-- Generator: sketchtool 55.2 (78181) - https://sketchapp.com -->
    <title>eventLoop.svg</title>
    <desc>Created with sketchtool.</desc>
    <g id="promise" stroke="none" stroke-width="1" fill="none" fill-rule="evenodd">
        <g id="eventLoop.svg">
            <rect id="Rectangle-1-Copy-5" stroke="#E8C48E" stroke-width="2" fill="#FFF9EB" x="218" y="173" width="108" height="28"></rect>
            <text id="..." font-family="PTMono-Regular, PT Mono" font-size="14" font-weight="normal" line-spacing="20" fill="#8A704D">
                <tspan x="258.9" y="189">...</tspan>
            </text>
            <rect id="Rectangle-1-Copy-6" stroke="#E8C48E" stroke-width="2" fill="#FFF9EB" x="218" y="90" width="108" height="28"></rect>
            <rect id="Rectangle-1-Copy-8" stroke="#E8C48E" stroke-width="2" fill="#FFF9EB" x="218" y="117" width="108" height="28"></rect>
            <text id="mousemove" font-family="PTMono-Regular, PT Mono" font-size="14" font-weight="normal" line-spacing="20" fill="#8A704D">
                <tspan x="233.7" y="136">mousemove</tspan>
            </text>
            <rect id="Rectangle-1-Copy-9" stroke="#E8C48E" stroke-width="2" fill="#FFF9EB" x="218" y="145" width="108" height="28"></rect>
            <text id="script" font-family="PTMono-Regular, PT Mono" font-size="14" font-weight="normal" line-spacing="20" fill="#8A704D">
                <tspan x="246.8" y="109">script</tspan>
            </text>
            <text id="event-loop" font-family="OpenSans-Regular, Open Sans" font-size="24" font-weight="normal" fill="#000000">
                <tspan x="69.6621094" y="134">event</tspan>
                <tspan x="75.6152344" y="167">loop</tspan>
            </text>
            <text id="macrotask-queue" font-family="OpenSans-Regular, Open Sans" font-size="24" font-weight="normal" fill="#9B9B9B">
                <tspan x="345.111328" y="136">macrotask</tspan>
                <tspan x="367.951172" y="169">queue</tspan>
            </text>
            <path id="Path" d="M263.010725,69.7351956 L258.427178,55.1253877 L262.243758,53.9280087 L270.177144,79.2152421 L244.446978,72.8637563 L245.405602,68.9803249 L260.271316,72.6499231 L251.379057,64.2925256 C234.508006,51.2131452 213.805751,44 192,44 C160.941365,44 132.332745,58.6951996 114.136419,83.1428166 L110.927659,80.7545412 C129.87093,55.303369 159.663534,40 192,40 C214.734181,40 236.326559,47.5348634 253.906792,61.1909666 L254.049591,61.3130651 L263.010725,69.7351956 Z" fill="#EE6B47" fill-rule="nonzero"></path>
            <path id="Path-Copy-2" d="M120.724894,221.828651 L125.083129,236.507247 L121.248579,237.645767 L113.705173,212.239473 L139.334576,218.986062 L138.316319,222.854285 L123.508821,218.956414 L132.2805,227.4584 C148.5538,239.990276 169.796977,246.679687 194.412852,246.679687 C211.208683,246.679687 229.275076,241.15794 243.817212,231.644681 C250.728173,227.123628 255.441499,222.839019 265.167458,212.919811 L265.501312,212.579321 C267.561111,210.478661 268.636053,209.389458 269.882343,208.148251 L272.704986,210.98245 C271.473253,212.20916 270.406519,213.290045 268.357381,215.379834 L268.02357,215.72028 C258.101872,225.839116 253.233892,230.264312 246.007006,234.992038 C230.82183,244.925965 211.996447,250.679687 194.412852,250.679687 C168.89777,250.679687 146.759649,243.69382 129.747255,230.556099 L129.658358,230.487449 L120.724894,221.828651 Z" fill="#EE6B47" fill-rule="nonzero"></path>
            <text id="setTimeout" font-family="PTMono-Regular, PT Mono" font-size="14" font-weight="normal" line-spacing="20" fill="#8A704D">
                <tspan x="230" y="164">setTimeout</tspan>
            </text>
        </g>
    </g>
</svg>

<svg xmlns="http://www.w3.org/2000/svg" width="479" height="279" viewBox="0 0 479 279"><defs><style>@import url(https://fonts.googleapis.com/css?family=Open+Sans:bold,italic,bolditalic%7CPT+Mono);@font-face{font-family:&apos;PT Mono&apos;;font-weight:700;font-style:normal;src:local(&apos;PT MonoBold&apos;),url(/pack/modules/styles/blocks/font/PTMonoBold.woff2) format(&apos;woff2&apos;),url(/pack/modules/styles/blocks/font/PTMonoBold.woff) format(&apos;woff&apos;),url(/pack/modules/styles/blocks/font/PTMonoBold.ttf) format(&apos;truetype&apos;)}</style></defs><g id="promise" fill="none" fill-rule="evenodd" stroke="none" stroke-width="1"><g id="eventLoop.svg"><path id="Rectangle-1-Copy-5" fill="#FFF9EB" stroke="#E8C48E" stroke-width="2" d="M218 173h108v28H218z"/><text id="..." fill="#8A704D" font-family="PTMono-Regular, PT Mono" font-size="14" font-weight="normal"><tspan x="258.9" y="189">...</tspan></text><path id="Rectangle-1-Copy-6" fill="#FFF9EB" stroke="#E8C48E" stroke-width="2" d="M218 90h108v28H218z"/><path id="Rectangle-1-Copy-8" fill="#FFF9EB" stroke="#E8C48E" stroke-width="2" d="M218 117h108v28H218z"/><text id="mousemove" fill="#8A704D" font-family="PTMono-Regular, PT Mono" font-size="14" font-weight="normal"><tspan x="233.7" y="136">mousemove</tspan></text><path id="Rectangle-1-Copy-9" fill="#FFF9EB" stroke="#E8C48E" stroke-width="2" d="M218 145h108v28H218z"/><text id="script" fill="#8A704D" font-family="PTMono-Regular, PT Mono" font-size="14" font-weight="normal"><tspan x="246.8" y="109">script</tspan></text><text id="event-loop" fill="#000" font-family="OpenSans-Regular, Open Sans" font-size="24" font-weight="normal"><tspan x="69.662" y="134">event</tspan> <tspan x="75.615" y="167">loop</tspan></text><text id="macrotask-queue" fill="#9B9B9B" font-family="OpenSans-Regular, Open Sans" font-size="24" font-weight="normal"><tspan x="345.111" y="136">macrotask</tspan> <tspan x="367.951" y="169">queue</tspan></text><path id="Path" fill="#EE6B47" fill-rule="nonzero" d="M263.01 69.735l-4.583-14.61 3.817-1.197 7.933 25.287-25.73-6.351.959-3.884 14.865 3.67-8.892-8.357C234.508 51.213 213.806 44 192 44c-31.059 0-59.667 14.695-77.864 39.143l-3.208-2.388C129.87 55.303 159.664 40 192 40c22.734 0 44.327 7.535 61.907 21.191l.143.122 8.96 8.422z"/><path id="Path-Copy-2" fill="#EE6B47" fill-rule="nonzero" d="M120.725 221.829l4.358 14.678-3.834 1.139-7.544-25.407 25.63 6.747-1.019 3.868-14.807-3.898 8.771 8.502c16.274 12.532 37.517 19.222 62.133 19.222 16.796 0 34.862-5.522 49.404-15.035 6.911-4.521 11.624-8.806 21.35-18.725l.334-.34c2.06-2.101 3.135-3.19 4.381-4.432l2.823 2.834a488.86 488.86 0 00-4.348 4.398l-.333.34c-9.922 10.12-14.79 14.544-22.017 19.272-15.185 9.934-34.01 15.688-51.594 15.688-25.515 0-47.653-6.986-64.666-20.124l-.089-.069-8.933-8.658z"/><text id="setTimeout" fill="#8A704D" font-family="PTMono-Regular, PT Mono" font-size="14" font-weight="normal"><tspan x="230" y="164">setTimeout</tspan></text></g></g></svg>
